wp-content/themes/sd-accesslasers/public/images/application/icons/application-3.svg

<?xml version="1.0" encoding="UTF-8"?>
<svg width="120px" height="120px" viewBox="0 0 120 120" version="1.1" xmlns="http://www.w3.org/2000/svg" xmlns:xlink="http://www.w3.org/1999/xlink">
    <!-- Generator: Sketch 55 (78076) - https://sketchapp.com -->
    <title>3</title>
    <desc>Created with Sketch.</desc>
    <g id="Home" stroke="none" stroke-width="1" fill="none" fill-rule="evenodd">
        <g id="AL_Home-Copy" transform="translate(-1457.000000, -1735.000000)" fill="currentColor" fill-rule="nonzero">
            <g id="Features" transform="translate(195.000000, 1665.000000)">
                <g id="Icons">
                    <g id="7" transform="translate(1123.000000, 0.000000)">
                        <g id="icon" transform="translate(139.000000, 70.000000)">
                            <g id="prism-(1)" transform="translate(0.000000, 23.000000)">
                                <path d="M119.154788,0.794467258 C118.64492,0.367236635 117.960526,0.145440252 117.265168,0.264519516 L64.787098,9.22818396 C64.787098,9.22818396 62.1482091,4.66136006 62.1454678,4.65681511 C61.2609649,3.12605647 58.9720395,3.12787435 58.089364,4.65681511 L41.2975146,33.7112324 L1.67032164,50.2150647 C0.47880117,50.7113797 -0.0831506433,52.0748821 0.415752982,53.2602201 C0.884502924,54.373747 2.31907883,54.9909591 3.47679088,54.5091884 L37.4561404,40.3569427 C37.4561404,40.3569427 20.4367691,69.8067758 20.4285453,69.8204107 C19.5650585,71.3129914 20.6633773,73.3073409 22.4561404,73.3073409 L97.7777778,73.3073409 C99.5413011,73.3073409 100.68348,71.3393523 99.8053729,69.8204107 L99.1109284,68.6178017 C99.1109284,68.6178017 116.995614,73.6773044 117.021199,73.6845764 C117.684576,73.8718308 118.488669,73.7409346 119.070724,73.3027957 C119.656433,72.862839 120,72.1756338 120,71.4457057 C120,71.4457057 120,2.71518775 120,2.55883948 C120,1.85345426 119.664656,1.22169811 119.154788,0.794467258 Z M115.321637,27.5172956 L115.321637,33.8539456 L102.369335,34.2966292 L79.7213085,35.0683717 L77.2468933,30.7860653 L115.321637,27.5172956 Z M74.6737939,26.3346846 L72.2880117,22.2059994 L115.321637,16.5101956 L115.321637,22.8450275 L74.6737939,26.3346846 Z M84.6893275,43.6638906 L82.3611111,39.6361046 L102.530153,38.9479904 L115.321637,38.5116697 L115.321637,45.63097 L84.6893275,43.6638906 Z M115.321637,5.3194772 L115.321637,11.8152026 L69.7669956,17.843701 L67.2715644,13.5259434 L115.321637,5.3194772 Z M26.5003654,68.6532529 L29.1904239,63.9982556 L50.7602339,63.9982556 C52.0495249,63.9982556 53.0994152,62.9529039 53.0994152,61.6712116 C53.0994152,60.3886103 52.0495249,59.3441676 50.7602339,59.3441676 L31.8804823,59.3441676 L60.1169591,10.4853332 L88.3543495,59.3441676 L69.4736842,59.3441676 C68.1853071,59.3441676 67.1345029,60.3886103 67.1345029,61.6712116 C67.1345029,62.9529039 68.1853071,63.9982556 69.4736842,63.9982556 L91.044408,63.9982556 L93.7344664,68.6532529 L26.5003654,68.6532529 Z M115.321637,68.3641903 L95.7675439,62.8338247 L92.9230629,57.9115811 L115.321637,62.0384483 L115.321637,68.3641903 Z M89.8620248,52.6139199 L87.4890351,48.5079599 L115.321637,50.2950569 L115.321637,57.3043681 L89.8620248,52.6139199 Z" id="Shape"></path>
                                <path d="M60.1169591,59.3441676 C58.828582,59.3441676 57.7777778,60.3886103 57.7777778,61.6712116 C57.7777778,62.9529039 58.828582,63.9982556 60.1169591,63.9982556 C61.4062501,63.9982556 62.4561404,62.9529039 62.4561404,61.6712116 C62.4561404,60.3886103 61.4062501,59.3441676 60.1169591,59.3441676 L60.1169591,59.3441676 Z" id="Path"></path>
                            </g>
                        </g>
                    </g>
                </g>
            </g>
        </g>
    </g>
</svg>

<svg width="120" height="120" viewBox="0 0 120 120" version="1.1" xmlns="http://www.w3.org/2000/svg"><g id="Home" stroke="none" stroke-width="1" fill="none" fill-rule="evenodd"><g id="AL_Home-Copy" transform="translate(-1457 -1735)" fill="currentColor" fill-rule="nonzero"><g id="Features" transform="translate(195 1665)"><g id="Icons"><g id="7" transform="translate(1123)"><g id="icon" transform="translate(139 70)"><g id="prism-(1)" transform="translate(0 23)"><path d="M119.155.794a2.336 2.336 0 0 0-1.89-.53L64.787 9.229l-2.642-4.571c-.884-1.53-3.173-1.53-4.056 0L41.298 33.71 1.67 50.215A2.323 2.323 0 0 0 .416 53.26c.469 1.114 1.903 1.731 3.06 1.25l33.98-14.153L20.43 69.82c-.864 1.493.234 3.487 2.027 3.487h75.322c1.763 0 2.905-1.968 2.027-3.487l-.694-1.202 17.91 5.067a2.418 2.418 0 0 0 2.05-.382c.585-.44.929-1.127.929-1.857V2.559c0-.706-.335-1.337-.845-1.765zm-3.833 26.723v6.337l-12.953.443-22.648.771-2.474-4.282 38.075-3.269zm-40.648-1.182l-2.386-4.129 43.034-5.696v6.335l-40.648 3.49zm10.015 17.329l-2.328-4.028 20.17-.688 12.79-.436v7.119L84.69 43.664zm30.633-38.345v6.496l-45.555 6.029-2.495-4.318 48.05-8.207zM26.5 68.653l2.69-4.655h21.57c1.29 0 2.34-1.045 2.34-2.327a2.336 2.336 0 0 0-2.34-2.327H31.88l28.237-48.859 28.237 48.86h-18.88a2.337 2.337 0 0 0-2.34 2.326 2.338 2.338 0 0 0 2.34 2.327h21.57l2.69 4.655H26.5zm88.822-.289l-19.554-5.53-2.845-4.922 22.399 4.126v6.326zm-25.46-15.75l-2.373-4.106 27.833 1.787v7.01l-25.46-4.691z" id="Shape"/><path d="M60.117 59.344a2.337 2.337 0 0 0-2.34 2.327 2.338 2.338 0 0 0 2.34 2.327c1.29 0 2.34-1.045 2.34-2.327a2.336 2.336 0 0 0-2.34-2.327z" id="Path"/></g></g></g></g></g></g></g></svg>
